X: 8
T:Flavor of the Month, The
M:C|
L:1/8
Q:230
C:Brendan Callahan
S:Cleek Schrey
R:reel
Z:Devin McCabe
K:GMin
DF|:G2 A BGGA|BGcG BGGF|DFFd cAFA|BGAF GFDC|
!B,DGA BGGA|BGcG BGGF|DFFd cAFA|1BdcA G2 DF:|2BdcA G3 B|
!:d ~g3 bgdg|fdce dBGB|AFcF dFcF|BdcF GFDc|
!BGDB A^FDc|BGD=B cA^FA|d ~g3 fdcA|1BdA^F G3 B:|2BdA^F G2 DF|
